Newaita-dark/actions/22/kdenlive-object-height.svg

<svg height="22" viewBox="0 0 22 22" width="22" xmlns="http://www.w3.org/2000/svg"><g fill="#e0e0e0"><path d="m7.273438 14.726562c0-.367187.222656-.699218.566406-.839843.339844-.136719.730468-.054688.988281.210937l2.089844 2.085938 2.085937-2.085938c.230469-.234375.566406-.328125.882813-.246094.3125.085938.558593.332032.644531.644532.082031.316406-.011719.652344-.246094.878906l-2.726562 2.730469c-.355469.355469-.929688.355469-1.28125 0l-2.730469-2.730469c-.175781-.167969-.273437-.402344-.273437-.648438zm0 0"/><path d="m7.273438 7.445312c0 .371094.222656.703126.566406.839844.339844.140625.730468.054688.988281-.207031l2.089844-2.089844 2.085937 2.089844c.230469.234375.566406.328125.882813.242187.3125-.082031.558593-.328124.644531-.644531.082031-.316406-.011719-.652343-.246094-.878906l-2.726562-2.726563c-.355469-.355468-.929688-.355468-1.28125 0l-2.730469 2.726563c-.175781.171875-.273437.40625-.273437.648437zm0 0"/></g></svg>

<?xml version="1.0" encoding="UTF-8"?>
<svg xmlns="http://www.w3.org/2000/svg" xmlns:xlink="http://www.w3.org/1999/xlink" width="22px" height="22px" viewBox="0 0 22 22" version="1.1">
<g id="surface1">
<path style=" stroke:none;fill-rule:nonzero;fill:rgb(87.843138%,87.843138%,87.843138%);fill-opacity:1;" d="M 7.273438 14.726562 C 7.273438 14.359375 7.496094 14.027344 7.839844 13.886719 C 8.179688 13.75 8.570312 13.832031 8.828125 14.097656 L 10.917969 16.183594 L 13.003906 14.097656 C 13.234375 13.863281 13.570312 13.769531 13.886719 13.851562 C 14.199219 13.9375 14.445312 14.183594 14.53125 14.496094 C 14.613281 14.8125 14.519531 15.148438 14.285156 15.375 L 11.558594 18.105469 C 11.203125 18.460938 10.628906 18.460938 10.277344 18.105469 L 7.546875 15.375 C 7.371094 15.207031 7.273438 14.972656 7.273438 14.726562 Z M 7.273438 14.726562 "/>
<path style=" stroke:none;fill-rule:nonzero;fill:rgb(87.843138%,87.843138%,87.843138%);fill-opacity:1;" d="M 7.273438 7.445312 C 7.273438 7.816406 7.496094 8.148438 7.839844 8.285156 C 8.179688 8.425781 8.570312 8.339844 8.828125 8.078125 L 10.917969 5.988281 L 13.003906 8.078125 C 13.234375 8.3125 13.570312 8.40625 13.886719 8.320312 C 14.199219 8.238281 14.445312 7.992188 14.53125 7.675781 C 14.613281 7.359375 14.519531 7.023438 14.285156 6.796875 L 11.558594 4.070312 C 11.203125 3.714844 10.628906 3.714844 10.277344 4.070312 L 7.546875 6.796875 C 7.371094 6.96875 7.273438 7.203125 7.273438 7.445312 Z M 7.273438 7.445312 "/>
</g>
</svg>
